X:62
T: ES DUNKELT VOR DEM WALDE
N: E0679B
O: Europa, Mitteleuropa, Deutschland, Brandenburg; Sachsen, Dahme
R: Liebes - Lied, Leid, Klage
M: 6/8
L: 1/8
K: Bb
F | FBBBAB | G2BG2
F | BFDFEE | D3z2
F | FDFFDF | B2cd2
d | c2cdcA | B3z2

